; generated by PrusaSlicer 2.7.1+MacOS-arm64 on 2024-02-29 at 13:52:22 UTC


;
;
; 

; external perimeters extrusion width = 0.60mm
; perimeters extrusion width = 0.50mm
; infill extrusion width = 0.50mm
; solid infill extrusion width = 0.50mm
; top infill extrusion width = 0.45mm
; first layer extrusion width = 0.42mm

M73 P0 R128
M73 Q0 S128
M201 X1000 Y1000 Z200 E5000 ; sets maximum accelerations, mm/sec^2
M203 X200 Y200 Z12 E120 ; sets maximum feedrates, mm / sec
M204 S1250 T1250 ; sets acceleration (S) and retract acceleration (R), mm/sec^2
M205 X8.00 Y8.00 Z0.40 E4.50 ; sets the jerk limits, mm/sec
M205 S0 T0 ; sets the minimum extruding and travel feed rate, mm/sec

; printing object Body2.stl id:0 copy 0
; stop printing object Body2.stl id:0 copy 0

;TYPE:Custom
M862.3 P "MK3S" ; printer model check
M862.1 P0.4 ; nozzle diameter check
M115 U3.13.2 ; tell printer latest fw version
G90 ; use absolute coordinates
M83 ; extruder relative mode
M104 S215 ; set extruder temp
M140 S60 ; set bed temp
M190 S60 ; wait for bed temp
M109 S215 ; wait for extruder temp
G28 W ; home all without mesh bed level
G80 X75.7858 Y74.4973 W98.4307 H60.9732 ; mesh bed levelling

G1 Z0.2 F720
G1 Y-3 F1000 ; go outside print area
G92 E0
G1 X60 E9 F1000 ; intro line
G1 X100 E12.5 F1000 ; intro line

G92 E0
M221 S95

; Don't change E values below. Excessive value can damage the printer.

M907 E538 ; set extruder motor current
G21 ; set units to millimeters
G90 ; use absolute coordinates
M83 ; use relative distances for extrusion
M900 K0.05 ; Filament gcode LA 1.5
M900 K30 ; Filament gcode LA 1.0

M107
;LAYER_CHANGE
;Z:0.2
;HEIGHT:0.2
;BEFORE_LAYER_CHANGE
G92 E0.0
;0.2


G1 E-.8 F2100
G1 Z.2 F720
;AFTER_LAYER_CHANGE
;0.2
G1 X79.902 Y80.066 F10800
G1 Z.2 F720
G1 E.8 F2100
M204 S800
;TYPE:Skirt/Brim
;WIDTH:0.42
G1 F1200
G1 X81.246 Y78.96 E.05457
G1 X82.535 Y78.131 E.04805
G1 X83.965 Y77.377 E.05069
G1 X85.372 Y76.755 E.04823
G1 X90.725 Y74.814 E.17853
G1 X91.494 Y74.686 E.02444
G1 X157.228 Y74.686 E2.06104
G1 X157.821 Y74.761 E.01874
G1 X161.323 Y75.703 E.11371
G1 X163.407 Y76.362 E.06853
G1 X165.308 Y77.079 E.0637
G1 X166.969 Y77.857 E.05751
G1 X168.741 Y78.938 E.06508
G1 X169.672 Y79.647 E.03669
G1 X170.76 Y80.665 E.04672
G1 X171.602 Y81.65 E.04063
G1 X172.536 Y83.067 E.05321
G1 X173.225 Y84.513 E.05022
G1 X173.747 Y86.194 E.05519
G1 X173.935 Y87.266 E.03412
G1 X174.028 Y88.88 E.05069
G1 X173.889 Y90.588 E.05373
M73 P0 R127
G1 X173.434 Y92.491 E.06135
G1 X172.887 Y93.899 E.04736
G1 X171.829 Y95.809 E.06846
G1 X170.176 Y98.001 E.08608
G1 X168.746 Y99.542 E.06592
G1 X166.254 Y101.912 E.10783
G1 X128.767 Y134.726 E1.56207
G1 X127.525 Y135.292 E.0428
G1 X125.767 Y134.832 E.05698
G1 X78.27 Y98.877 E1.86781
G1 X77.404 Y97.581 E.04887
G1 X76.777 Y95.079 E.08087
G1 X76.248 Y92.501 E.08252
G1 X75.996 Y90.394 E.06653
G1 X75.974 Y88.835 E.04889
G1 X76.157 Y87.027 E.05698
G1 X76.395 Y85.923 E.03541
G1 X76.991 Y84.19 E.05746
G1 X77.555 Y83.057 E.03968
G1 X78.592 Y81.504 E.05855
G1 X79.862 Y80.11 E.05913
M204 S1000
; printing object Body2.stl id:0 copy 0
;WIPE_START
G1 F8640
G1 X79.902 Y80.066 E-.01373
G1 X81.246 Y78.96 E-.4019
G1 X82.535 Y78.131 E-.35387
G1 X82.652 Y78.069 E-.0305
;WIPE_END
G1 Z.6 F720
G1 X86.118 Y94.48 F10800
G1 Z.2 F720
M73 Q0 S127
G1 E.8 F2100
M204 S800
;TYPE:Perimeter
;WIDTH:0.419999
G1 F1200
G1 X80.273 Y96.018 E.1895
G1 X79.862 Y94.375 E.0531
G1 X79.5 Y92.705 E.05358
G1 X79.273 Y91.358 E.04283
G1 X79.148 Y90.113 E.03923
G1 X79.139 Y88.844 E.03979
G1 X79.188 Y88.189 E.02059
G1 X79.286 Y87.5 E.02182
G1 X79.437 Y86.796 E.02258
G1 X79.649 Y86.083 E.02332
G1 X79.927 Y85.371 E.02397
G1 X80.273 Y84.677 E.02431
G1 X80.678 Y84.014 E.02436
G1 X81.13 Y83.394 E.02406
G1 X81.613 Y82.829 E.02331
G1 X82.117 Y82.326 E.02233
G1 X82.628 Y81.883 E.0212
G1 X83.137 Y81.497 E.02003
G1 X84.204 Y80.819 E.03964
G1 X85.308 Y80.242 E.03906
G1 X85.894 Y79.972 E.02023
G1 X87.303 Y79.39 E.0478
G1 X89.215 Y78.682 E.06393
G1 X91.626 Y77.85 E.07997
G1 X157.127 Y77.85 E2.05373
G1 X159.292 Y78.417 E.07017
G1 X161.48 Y79.058 E.07149
G1 X163.258 Y79.671 E.05897
G1 X164.051 Y79.983 E.02672
G1 X164.806 Y80.314 E.02585
G1 X165.535 Y80.678 E.02555
G1 X166.255 Y81.09 E.02601
G1 X166.979 Y81.566 E.02717
G1 X167.707 Y82.128 E.02884
G1 X168.436 Y82.813 E.03136
G1 X168.784 Y83.197 E.01625
G1 X169.128 Y83.624 E.01719
G1 X169.461 Y84.097 E.01814
G1 X169.774 Y84.612 E.0189
G1 X170.058 Y85.159 E.01932
G1 X170.309 Y85.74 E.01984
G1 X170.478 Y86.23 E.01625
G1 X170.614 Y86.718 E.01588
G1 X170.726 Y87.242 E.0168
G1 X170.802 Y87.741 E.01583
G1 X170.851 Y88.341 E.01888
G1 X170.864 Y88.854 E.01609
G1 X170.836 Y89.465 E.01918
G1 X170.771 Y90.049 E.01842
G1 X170.672 Y90.593 E.01734
G1 X170.392 Y91.617 E.03329
G1 X170.041 Y92.515 E.03023
G1 X169.636 Y93.32 E.02825
G1 X169.197 Y94.052 E.02676
G1 X168.741 Y94.725 E.02549
G1 X167.712 Y96.017 E.05179
G1 X167.144 Y96.643 E.0265
G1 X165.81 Y98 E.05966
G1 X164.121 Y99.574 E.07239
G1 X127.275 Y131.826 E1.53534
G1 X123.294 Y127.276 E.18956
G1 X159.098 Y95.948 E1.49167
G1 X160.505 Y94.691 E.05916
G1 X161.606 Y93.654 E.04742
G1 X162.696 Y92.545 E.04876
G1 X163.538 Y91.575 E.04027
G1 X164.132 Y90.75 E.03187
G1 X164.5 Y90.08 E.02397
G1 X164.682 Y89.612 E.01574
G1 X164.817 Y88.889 E.02306
G1 X164.747 Y88.167 E.02274
G1 X164.471 Y87.515 E.0222
G1 X164.039 Y86.969 E.02183
G1 X163.443 Y86.472 E.02433
G1 X162.694 Y86.019 E.02745
G1 X161.708 Y85.559 E.03411
G1 X161.104 Y85.321 E.02036
G1 X159.646 Y84.82 E.04834
G1 X158.736 Y84.544 E.02982
G1 X156.439 Y83.916 E.07466
G1 X156.29 Y83.896 E.00471
G1 X92.724 Y83.896 E1.99306
G1 X92.54 Y83.927 E.00585
G1 X90.723 Y84.564 E.06037
G1 X89.508 Y85.02 E.04069
G1 X88.367 Y85.491 E.0387
G1 X87.947 Y85.69 E.01457
G1 X87.277 Y86.041 E.02372
G1 X86.628 Y86.437 E.02384
G1 X86.182 Y86.802 E.01807
G1 X85.825 Y87.195 E.01665
G1 X85.549 Y87.623 E.01597
G1 X85.353 Y88.088 E.01582
G1 X85.231 Y88.59 E.0162
G1 X85.177 Y89.144 E.01745
G1 X85.188 Y89.788 E.0202
G1 X85.339 Y91.024 E.03904
G1 X85.571 Y92.211 E.03792
G1 X86.104 Y94.422 E.07131
M204 S1000
G1 X86.575 Y94.75 F10800
M204 S800
;TYPE:External perimeter
G1 F1200
G1 X80 Y96.48 E.21317
G1 X79.494 Y94.461 E.06526
G1 X79.129 Y92.777 E.05403
G1 X78.899 Y91.408 E.04353
G1 X78.771 Y90.133 E.04018
G1 X78.762 Y88.831 E.04082
G1 X78.813 Y88.148 E.02147
G1 X78.914 Y87.434 E.02261
G1 X79.071 Y86.702 E.02347
G1 X79.292 Y85.96 E.02427
G1 X79.582 Y85.218 E.02498
G1 X79.943 Y84.495 E.02534
G1 X80.364 Y83.805 E.02534
G1 X80.833 Y83.16 E.025
G1 X81.336 Y82.572 E.02426
G1 X81.86 Y82.05 E.02319
G1 X82.391 Y81.59 E.02203
G1 X82.921 Y81.187 E.02088
G1 X84.015 Y80.492 E.04064
G1 X85.142 Y79.903 E.03987
G1 X85.743 Y79.626 E.02075
G1 X87.166 Y79.039 E.04826
G1 X89.088 Y78.327 E.06426
G1 X91.563 Y77.473 E.08209
G1 X157.175 Y77.473 E2.05721
G1 X159.393 Y78.054 E.07189
G1 X161.595 Y78.699 E.07194
G1 X163.388 Y79.317 E.05946
G1 X164.196 Y79.634 E.02721
G1 X164.966 Y79.972 E.02637
G1 X165.713 Y80.345 E.02618
G1 X166.452 Y80.769 E.02671
G1 X167.198 Y81.259 E.02798
G1 X167.952 Y81.841 E.02986
G1 X168.705 Y82.549 E.03241
G1 X169.071 Y82.952 E.01707
G1 X169.43 Y83.397 E.01793
G1 X169.777 Y83.891 E.01893
G1 X170.103 Y84.428 E.0197
G1 X170.398 Y84.997 E.0201
G1 X170.66 Y85.604 E.02073
G1 X170.834 Y86.107 E.01669
G1 X170.979 Y86.623 E.01681
G1 X171.098 Y87.178 E.0178
G1 X171.189 Y87.831 E.02067
G1 X171.228 Y88.332 E.01576
G1 X171.241 Y88.858 E.0165
G1 X171.212 Y89.495 E.01999
G1 X171.144 Y90.104 E.01921
G1 X171.04 Y90.676 E.01823
G1 X170.751 Y91.736 E.03445
G1 X170.386 Y92.669 E.03141
G1 X169.967 Y93.502 E.02924
G1 X169.515 Y94.255 E.02754
G1 X169.045 Y94.949 E.02628
G1 X167.999 Y96.261 E.05261
G1 X167.418 Y96.902 E.02713
G1 X166.073 Y98.27 E.06015
G1 X164.374 Y99.854 E.07283
G1 X127.24 Y132.359 E1.54736
G1 X122.762 Y127.241 E.21322
G1 X158.85 Y95.664 E1.50352
G1 X160.248 Y94.415 E.05878
G1 X161.332 Y93.395 E.04667
G1 X162.427 Y92.281 E.04898
G1 X163.233 Y91.353 E.03854
G1 X163.801 Y90.568 E.03038
G1 X164.17 Y89.898 E.02398
G1 X164.314 Y89.533 E.0123
G1 X164.441 Y88.912 E.01987
G1 X164.395 Y88.303 E.01915
G1 X164.171 Y87.743 E.01891
G1 X163.796 Y87.256 E.01927
G1 X163.247 Y86.794 E.0225
G1 X162.534 Y86.361 E.02616
G1 X161.569 Y85.91 E.0334
G1 X160.981 Y85.677 E.01983
G1 X159.538 Y85.182 E.04783
G1 X158.64 Y84.908 E.02944
G1 X156.29 Y84.273 E.07633
G1 X92.724 Y84.273 E1.99306
G1 X90.854 Y84.918 E.06202
G1 X89.64 Y85.373 E.04065
G1 X88.511 Y85.839 E.0383
G1 X88.11 Y86.031 E.01394
G1 X87.471 Y86.365 E.02261
G1 X86.864 Y86.73 E.02221
G1 X86.458 Y87.06 E.0164
G1 X86.02 Y87.582 E.02137
G1 X85.728 Y88.151 E.02005
G1 X85.606 Y88.63 E.0155
G1 X85.554 Y89.139 E.01604
G1 X85.563 Y89.743 E.01894
G1 X85.709 Y90.952 E.03818
G1 X85.938 Y92.126 E.0375
G1 X86.225 Y93.366 E.03991
G1 X86.561 Y94.692 E.04289
M204 S1000
;WIPE_START
G1 F8640
G1 X86.575 Y94.75 E-.01378
G1 X83.282 Y95.616 E-.78622
;WIPE_END
G1 Z.6 F720
G1 X169.287 Y84.145 F10800
G1 Z.2 F720
G1 E.8 F2100
M204 S800
;TYPE:Solid infill
;WIDTH:0.42027
G1 F1200
G1 X168.193 Y83.05 E.04857
G1 X167.487 Y82.387 E.03039
G1 X166.782 Y81.843 E.02794
G1 X165.87 Y81.261 E.03395
G1 X169.576 Y84.967 E.16445
G1 X169.751 Y85.304 E.01191
G1 X170.02 Y85.945 E.02181
G1 X164.731 Y80.656 E.23469
G1 X163.784 Y80.242 E.03243
G1 X170.265 Y86.723 E.28758
G1 X170.346 Y87.038 E.01021
G1 X170.409 Y87.401 E.01156
G1 X162.922 Y79.914 E.33222
G1 X162.108 Y79.633 E.02702
G1 X170.487 Y88.012 E.37181
G1 X170.517 Y88.577 E.01775
G1 X161.299 Y79.359 E.40903
G1 X160.545 Y79.138 E.02465
G1 X170.513 Y89.106 E.44231
G1 X170.479 Y89.606 E.01572
G1 X159.79 Y78.917 E.47431
G1 X159.042 Y78.703 E.02441
G1 X170.42 Y90.08 E.50486
G1 X170.337 Y90.531 E.01439
G1 X158.319 Y78.513 E.53328
G1 X157.596 Y78.324 E.02345
G1 X170.223 Y90.95 E.56028
G1 X170.108 Y91.37 E.01366
G1 X156.928 Y78.189 E.58486
G1 X156.394 Y78.189 E.01676
G1 X169.97 Y91.765 E.60241
G1 X169.82 Y92.149 E.01294
G1 X155.861 Y78.189 E.61943
G1 X155.327 Y78.189 E.01676
G1 X162.864 Y85.726 E.33444
G1 X163.726 Y86.258 E.03178
G1 X164.332 Y86.778 E.02506
G1 X164.824 Y87.437 E.0258
G1 X164.977 Y87.839 E.0135
G1 X169.658 Y92.521 E.20773
G1 X169.48 Y92.876 E.01246
G1 X165.125 Y88.521 E.19325
G1 X165.154 Y89.02 E.01568
G1 X165.142 Y89.072 E.00167
G1 X169.296 Y93.226 E.18433
G1 X169.097 Y93.56 E.0122
G1 X165.045 Y89.508 E.1798
G1 X164.976 Y89.812 E.00978
G1 X164.93 Y89.927 E.00389
G1 X168.896 Y93.892 E.17596
G1 X168.68 Y94.21 E.01206
G1 X164.767 Y90.298 E.17361
G1 X164.578 Y90.642 E.01232
G1 X168.464 Y94.528 E.17244
G1 X168.227 Y94.825 E.01192
G1 X164.384 Y90.982 E.17053
G1 X164.16 Y91.292 E.012
G1 X167.991 Y95.122 E.16997
G1 X167.754 Y95.419 E.01192
G1 X163.936 Y91.601 E.16942
G1 X163.704 Y91.903 E.01195
G1 X167.517 Y95.716 E.1692
G1 X167.453 Y95.797 E.00324
G1 X167.268 Y96.001 E.00864
G1 X163.456 Y92.188 E.16917
G1 X163.208 Y92.474 E.01188
G1 X167.015 Y96.281 E.16893
G1 X166.755 Y96.555 E.01185
G1 X162.959 Y92.759 E.16844
G1 X162.696 Y93.029 E.01183
G1 X166.491 Y96.824 E.1684
G1 X166.226 Y97.093 E.01185
G1 X162.431 Y93.298 E.1684
G1 X162.167 Y93.567 E.01183
G1 X165.961 Y97.362 E.16838
G1 X165.697 Y97.631 E.01183
G1 X161.902 Y93.836 E.1684
G1 X161.63 Y94.098 E.01185
G1 X165.426 Y97.894 E.16844
G1 X165.15 Y98.151 E.01183
G1 X161.355 Y94.357 E.16838
G1 X161.08 Y94.615 E.01183
G1 X164.874 Y98.409 E.16835
G1 X164.597 Y98.666 E.01186
G1 X160.805 Y94.874 E.16826
G1 X160.525 Y95.128 E.01186
M73 P0 R126
G1 X164.321 Y98.924 E.16844
G1 X164.045 Y99.181 E.01183
G1 X160.243 Y95.38 E.16869
G1 X159.961 Y95.631 E.01185
G1 X163.765 Y99.435 E.1688
G1 X163.48 Y99.684 E.01187
G1 X159.68 Y95.883 E.16864
G1 X159.398 Y96.135 E.01187
G1 X163.196 Y99.933 E.16853
G1 X162.911 Y100.182 E.01187
G1 X159.114 Y96.385 E.16849
G1 X158.829 Y96.634 E.01187
G1 X162.627 Y100.431 E.16851
G1 X162.342 Y100.68 E.01187
G1 X158.545 Y96.883 E.16849
G1 X158.26 Y97.132 E.01187
G1 X162.058 Y100.929 E.16851
G1 X161.773 Y101.179 E.0119
G1 X157.976 Y97.381 E.16851
G1 X157.691 Y97.63 E.01187
G1 X161.488 Y101.428 E.16851
G1 X161.204 Y101.677 E.01185
G1 X157.406 Y97.879 E.16853
G1 X157.122 Y98.128 E.01185
G1 X160.919 Y101.926 E.16851
G1 X160.635 Y102.175 E.01185
G1 X156.837 Y98.377 E.16853
G1 X156.552 Y98.626 E.01187
M73 Q1 S127
G1 X160.35 Y102.424 E.16853
G1 X160.066 Y102.673 E.01185
G1 X156.268 Y98.875 E.16853
G1 X155.983 Y99.124 E.01187
M73 P1 R126
G1 X159.781 Y102.922 E.16853
G1 X159.496 Y103.171 E.01187
G1 X155.699 Y99.373 E.16851
G1 X155.414 Y99.622 E.01187
G1 X159.212 Y103.42 E.16853
G1 X158.927 Y103.669 E.01187
G1 X155.129 Y99.872 E.16851
G1 X154.845 Y100.121 E.01185
G1 X158.643 Y103.918 E.16851
G1 X158.358 Y104.168 E.0119
G1 X154.56 Y100.37 E.16853
G1 X154.276 Y100.619 E.01185
G1 X158.074 Y104.417 E.16853
G1 X157.789 Y104.666 E.01187
G1 X153.991 Y100.868 E.16853
G1 X153.706 Y101.117 E.01187
M73 Q1 S126
G1 X157.504 Y104.915 E.16853
G1 X157.22 Y105.164 E.01185
G1 X153.422 Y101.366 E.16853
G1 X153.137 Y101.615 E.01187
G1 X156.935 Y105.413 E.16853
G1 X156.651 Y105.662 E.01185
G1 X152.852 Y101.864 E.16855
G1 X152.568 Y102.113 E.01185
G1 X156.366 Y105.911 E.16853
G1 X156.082 Y106.16 E.01185
G1 X152.283 Y102.362 E.16855
G1 X151.999 Y102.611 E.01185
G1 X155.797 Y106.409 E.16853
G1 X155.513 Y106.658 E.01185
G1 X151.714 Y102.86 E.16855
G1 X151.429 Y103.109 E.01187
G1 X155.228 Y106.908 E.16857
G1 X154.943 Y107.157 E.01187
G1 X151.145 Y103.358 E.16855
G1 X150.86 Y103.607 E.01187
G1 X154.659 Y107.406 E.16857
G1 X154.374 Y107.655 E.01187
G1 X150.576 Y103.856 E.16855
G1 X150.291 Y104.105 E.01187
G1 X154.09 Y107.904 E.16857
G1 X153.805 Y108.153 E.01187
G1 X150.006 Y104.354 E.16857
G1 X149.722 Y104.603 E.01185
G1 X153.521 Y108.402 E.16857
G1 X153.236 Y108.651 E.01187
G1 X149.437 Y104.852 E.16857
G1 X149.152 Y105.101 E.01187
G1 X152.951 Y108.9 E.16857
G1 X152.667 Y109.149 E.01185
G1 X148.868 Y105.35 E.16857
G1 X148.583 Y105.599 E.01187
G1 X152.382 Y109.398 E.16857
G1 X152.098 Y109.648 E.01187
G1 X148.299 Y105.848 E.1686
G1 X148.014 Y106.097 E.01187
G1 X151.813 Y109.897 E.1686
G1 X151.529 Y110.146 E.01185
G1 X147.729 Y106.346 E.16862
G1 X147.445 Y106.596 E.01187
G1 X151.244 Y110.395 E.16857
G1 X150.959 Y110.644 E.01187
G1 X147.16 Y106.845 E.16857
G1 X146.876 Y107.094 E.01185
G1 X150.675 Y110.893 E.16857
G1 X150.39 Y111.142 E.01187
G1 X146.591 Y107.343 E.16857
G1 X146.306 Y107.592 E.01187
G1 X150.106 Y111.391 E.1686
G1 X149.821 Y111.64 E.01187
G1 X146.022 Y107.841 E.16857
G1 X145.737 Y108.09 E.01187
G1 X149.537 Y111.889 E.1686
G1 X149.252 Y112.138 E.01187
G1 X145.452 Y108.339 E.1686
G1 X145.168 Y108.588 E.01185
G1 X148.968 Y112.387 E.1686
G1 X148.683 Y112.637 E.0119
G1 X144.883 Y108.837 E.16862
G1 X144.599 Y109.086 E.01185
G1 X148.398 Y112.886 E.1686
G1 X148.114 Y113.135 E.01185
G1 X144.314 Y109.335 E.16862
G1 X144.029 Y109.584 E.01187
G1 X147.829 Y113.384 E.16862
G1 X147.545 Y113.633 E.01185
G1 X143.745 Y109.833 E.16862
G1 X143.46 Y110.082 E.01187
G1 X147.26 Y113.882 E.16862
G1 X146.976 Y114.131 E.01185
G1 X143.176 Y110.331 E.16862
G1 X142.891 Y110.58 E.01187
G1 X146.691 Y114.38 E.16862
G1 X146.406 Y114.629 E.01187
G1 X142.606 Y110.829 E.16862
G1 X142.322 Y111.078 E.01185
G1 X146.122 Y114.878 E.16862
G1 X145.837 Y115.127 E.01187
G1 X142.037 Y111.327 E.16862
G1 X141.753 Y111.576 E.01185
G1 X145.553 Y115.377 E.16864
G1 X145.268 Y115.626 E.01187
G1 X141.468 Y111.825 E.16864
G1 X141.183 Y112.074 E.01187
G1 X144.984 Y115.875 E.16866
G1 X144.699 Y116.124 E.01187
G1 X140.899 Y112.323 E.16864
G1 X140.614 Y112.572 E.01187
G1 X144.414 Y116.373 E.16864
G1 X144.13 Y116.622 E.01185
G1 X140.329 Y112.821 E.16866
G1 X140.045 Y113.071 E.01187
G1 X143.845 Y116.871 E.16862
G1 X143.561 Y117.12 E.01185
G1 X139.76 Y113.32 E.16864
G1 X139.476 Y113.569 E.01185
G1 X143.276 Y117.369 E.16862
G1 X142.992 Y117.618 E.01185
G1 X139.191 Y113.818 E.16864
G1 X138.906 Y114.067 E.01187
G1 X142.707 Y117.867 E.16864
G1 X142.423 Y118.116 E.01185
G1 X138.622 Y114.316 E.16864
G1 X138.337 Y114.565 E.01187
G1 X142.138 Y118.366 E.16866
G1 X141.853 Y118.615 E.01187
G1 X138.053 Y114.814 E.16864
G1 X137.768 Y115.063 E.01187
